X:1
T:Title
%%score { 1 | 2 }
L:1/8
M:4/4
K:C
V:1 treble nm="Grand Piano"
V:2 bass 
V:1
 z4 z2[Q:1/4=94] [CE][DF] | [EG]2 [_E^F][=EG] [Ge]2 [Gc][GB] |[M:7/8] [FA]2 [Ac] [FA] [FA]2 [EG] | %3
[M:1/8] [EG] |[M:4/4] G2 Bd c2 cB |[M:7/8] [^FA]2 [FB] [FA] G2 z |[M:1/8] G | %7
[M:4/4] [EG]2 [_E^F][=EG] [Ge]2 [CGc][CGB] |[M:7/8] [CFA]2 [CAc] [CFA] [CFA]2 [CEG] |[M:1/8] G | %10
[M:4/4] A2 AA [^Fd]2 [Fd][DFc] |[M:3/4] [DGB]2 [D^Fc][CFA] [B,G]2 |[M:1/4] GG | %13
[M:4/4] [Bf]2 [Bf][Bf] [Bf][Bf] z [G,G] |[M:3/4] [Ge]2 [Ge][Ge] [Ge][Ge] |[M:1/4] [EG][EG] | %16
[M:4/4] A2 AA [GB]2 [GB][GB] |[M:3/4] [Gc]2 [Gd][Ge] d2 |[M:1/4] GG | %19
[M:4/4] [G,EG]2 [G,CE][G,DF] [CEG][CEG][CGc][CGc] | d2 ee [Af] [Af]3 |[M:1/8] [Ac] | %22
[M:4/4] [Ac]2 [GB][FA] [EG]2 [Ec][Gd] |[M:3/4] cB AB [Ec]2 |] %24
V:2
 z4 z2 [C,G,][C,G,] | [C,C]2 [C,C][C,C] [C,C]2 [E,C][E,C] | %2
[M:7/8] [F,C]2 [F,C] [F,C] [C,C]2 [C,C] |[M:1/8] [C,C] | %4
[M:4/4][K:treble] [G,B,F]2 [G,DF][G,B,F] [A,CE]2 [A,CE][K:bass][A,CE] | %5
[M:7/8] [D,C]2 [D,D] [D,C] [G,B,]2 z |[M:1/8] [G,B,F] |[M:4/4] [C,C]2 [C,C][C,C] [C,C]2 E,E, | %8
[M:7/8] F,2 F, F, C,2 C, |[M:1/8] E |[M:4/4] [F,CF]2 [F,CF][F,CF] [D,D]2 [D,A,]D, | %11
[M:3/4] G,2 D,D, G,2 |[M:1/4] G,G, |[M:4/4] [G,D]2 [G,D][G,D] [G,D][G,D] z2 | %14
[M:3/4] [C,C]2 [C,C][C,C] [C,C][C,C] |[M:1/4] [C,C][C,C] | %16
[M:4/4] [F,CF]2 [F,CF][F,CF] [F,D]2 [F,D][F,D] |[M:3/4] [E,C]2 [D,B,][C,C][K:treble] [G,B,G]2 | %18
[M:1/4] G,[K:bass]G, |[M:4/4] C,2 C,C, C,C,E,E, | [G,B,G]2 [CG][C_B][K:bass] [F,C] [F,C]3 | %21
[M:1/8] [F,C] |[M:4/4] [F,C]2 [F,C][F,C] [C,C]2[K:treble] [A,C][F,F] | %23
[M:3/4] [G,DF]2 [G,DF][G,DF][K:bass] [C,C]2 |] %24

